X: 1
T:JENNYBAB- Jenny's Babee
S:Aird's 'Airs', IV, #72 (1794)
Q:1/4=60
M:C|
K:D
f/|a/b/a/g/ (f/d/d/f/)|B/4B/4B/ (e/d/) c/(A/A/)f/|\
a/f/a/g/ f/(d/d/)f/|B/4B/4B/ (c/A/)d3/2::g/|\
f/d/g/e/ f/(d/d/)f/|B/4B/4B/ (e/B/) c/(A/A/)g/|\
f/d/g/e/ f/(d/d/)f/|B/4B/4B/ (c/A/)d3/2:|]
